X: 454
%%etbk:tnset id:181,pos:1,rep:2x,ant:
%%etbk:pldat 2016-03-11T15:18,2016-03-10T18:20,2016-03-09T16:23,2016-03-08T15:56,2015-01-14T15:31,2015-01-12T17:58,2015-01-07T15:51,2015-01-06T18:41,2015-01-05T18:42,2014-02-23T10:03,2014-02-20T19:03,2013-12-27T17:42,2013-05-09T17:15
T: Innion Ni Scanlain
H: Created 2013-02-19 /  Last Modified 2013-05-09
R: waltz
M: 3/4
L: 1/8
P: AA-B-A-Coda                % play the parts in this order
K: Gmaj
P:A 
|: !1!G3 A{c} AG | !5!B!3!G !1!E>!2!E !1!E!2!F | !1!G2 GA AG |  !3!B!4!d d!1!G !2!B!4!d |
!5!!2!e3 !4!g f!1!d | !2!!5!e2 e!4!d !3!(3BAG | !2!A2 AG A!3!B |1 !3!B!4!d d!5!e !3!BA:|2 !3!B!4!d d!1!G !2!B!4!d |
!5!!2!e3 !4!a ab | !3!g2 !4!gf ge | !1!d3 e f!4!g | !1!B!2!A !1!G2 !2!B!4!d |
!5!!2!e3 !4!a ab | !3!g2 g!1!d !1!e/2f/2g/2a/2 | !5!b6 | !5!b!1!d !4!ad !3!gd |
!2!e3 !4!g fd | !2!!5!e2 e!4!d !3!(3BAG | !2!A2 AG AB !coda!| !3!B!4!d de !3!B!1!G |
!2!A2 !4!AB A!3!G | !1!DE ED !2!(3EF!4!G | !2!A2 AG AB | !3!B!4!d d!5!e !3!BA||
P:B
!3![B3G] | !4![d2F]e | !3![B3G] | !4![d2F]e | !2![G2E]!4!B ] | !2![G2D]!4!B | !3![A2E]!4!B |1,2 !5![d3F] :|3 !5![d3F]- | !5![d3F] !D.C.! ||
P:Coda
 !3!B!4!d | !5!e3!4!d d!5!e | !3!B3A AB | !2!A3B A!1!G |
!2!E3D !2!(3EF!4!G | !2!A2AG A!3!B | !3!B!4!d d!5!e !3!BA | !3!B6- | B6 |


